X: 1013
T: Herkes Gitti Yalnız Kaldım...
C: Refik Fersan
O: Turkey
F: http://compmusic.upf.edu/node/140
N: segah--sarki--raksaksagi--herkes_gitti--refik_fersan
N: makam= segah
N: form= sarki
N: usul= raksaksagi = 9/8
M: 9/8
L: 1/16
K: C _1/4B _1/4e ^f 
Q: 1/4=184
%%MIDI tuningsystem comma53
G4 B4 G2B2 c2d4 | e2 ^3/4f2{a}g2 ^1/4f2e2 d4 B4  | \
w:  ARANAĞME  |   | 
c2d2 c2B2 ^A2B8 | G4B4G2 B2c2 d4  | 
w:   |  ARANAĞME  | 
e2^3/4f2 {a}g2^1/4f2 e2d4B4 | c2 d2c2 B2^A2 B8  | \
w:   |   | 
G4 B6c4B4 | c2 d2d6 e2g2 =f2e2  | 
w:  Her kes  git ti   |  yal *  nız  kal *  dım   | 
d2c2 B4 c2d8 | G4B6 c4 B4  | c2d2 d6e2 g2=f2 e2 | \
w:  mey *  ha ne de    |  Her kes  git ti   |  yal *  nız  kal *  dım   | 
d2 c2B4c2 d8  | 
w:  mey *  ha ne de    | 
d4 gfg2 e2f4d4 | .e4.c4z2 d3B B4  | c2d2 c2B2 ^A2B8 | \
w:  Göz yaş *  *  la rı mı   |  iç tim  son  *  pey  |  mâ *  *  *  ne de    | 
d4gf g2e2 f4 d4  | 
w:  Göz yaş *  *  la rı mı   | 
.e4 .c4 z2d3BB4 | c2 d2c2 B2^A2 B8  | \
w:  iç tim  son  *  pey  |  mâ *  *  *  ne de    | 
z4 g2b4c'4b4 | z4c'2 b2b2 d'4 b4  | 
w:  Bu  kalp  dur du   |  dün  *  ge ce  vî  | 
c'2b2 ^a2g2 {b}c'bb8 | z4g2 b4 c'2b2 d'4  | \
w:  ran *  ha *  *  ne *  de    |  Bu  kalp  dur *  du  | 
d'4 c'2b2 a2g2 f2ag fe | 
w:  *  dün  *  ge ce  *  vî  | 
d4b4ag g6z2  | d4 g4 e2e4f4 | d4e6 c4 {e}d4  | \
w:  ran ha ne *  de    |  Her kes  *  git ti   |  yal nız  kal *  dım   | 
e2c2 B2c2 e2d6 z2 | 
w:  mey *  ha *  ne de    | 
d4gf g2e2 f4 d4  | .e4 .c4 z2d3BB4 | \
w:  Göz yaş *  *  la rı mı   |  iç tim  son  *  pey  | 
c2 d2c2 B2^A2 B6z2  | d4 gfg2 e2f4d4 | 
w:  mâ *  *  *  ne de    |  Göz yaş *  *  la rı mı   | 
.e4.c4z2 d3B B4  | c2d2 c2B2 ^A2B6 z2 | |


